X:1
T:Title
%%score { ( 1 3 ) | ( 2 4 ) }
L:1/8
Q:1/4=113
M:6/8
K:Eb
V:1 treble nm="Grand Piano"
V:3 treble 
V:2 bass 
V:4 bass 
V:1
 [CE]2 [CF] [CE]2 [CF] | [CE]3 [Ec]3 | [CE]2 [CF] [CE]2 [CF] | [_DG]6 | E2 F E2 F | E3 _d3 | %6
w: Samuel~W.~Beazley * * *||||||
 B2 [EG] [EA]2 B | c6 | [CE]2 [CF] [CE]2 [CF] | [CE]3 [Ec]3 | [_Ge]2 [Gc] [GB]2 [GA] | [F_d]6 | %12
w: ||||||
 [_DF]2 [FA] [FG]2 [FA] | e2 c B2 A | c3 B3 | [CA]6 | z2 E _d2- [Gd] | _d2- [Gd-] [Gd]3 | %18
w: ||||||
 F2 G F2 G | F6 | C2 C c2- [Ec] | c2- [Ec-] [Ec]3 | .[CE]3 .[A,CE]3 | E6 | D2 E [DF]2 [EG] | %25
w: |||||||
 [FA]3 [DAc]3 | G2 _G =G2 A | [EB]3 [Ee]3 | [_DF]2 [FA] [FG]2 [FA] | e2 c B2 A | c3 B3 | %31
w: ||||||
[M:7/4] [CA]6 z2 z2 z4 |] %32
w: |
V:2
 [A,,A,]2 [A,,A,] [A,,A,]2 [A,,A,] | [A,,A,]3 [A,,A,]3 | [A,,A,]2 [A,,A,] [A,,A,]2 [A,,A,] | %3
 [B,,E,]6 | [E,G,_D]2 [E,G,D] [E,G,D]2 [E,G,D] | [E,G,_D]3 [E,B,E]3 | %6
 [E,G,E]2 [_D,B,] [C,A,]2 [E,G,E] | [A,E]6 | [A,,A,]2 [A,,A,] [A,,A,]2 [A,,A,] | %9
 [A,,A,]3 [A,,A,]3 | [C,A,]2 [C,A,] [C,A,]2 [C,A,] | [_D,A,]6 | [_D,A,]2 [D,A,] [=D,=B,]2 [D,B,] | %13
 [E,CE]2 [E,A,E] [F,A,D]2 [F,A,D] | [E,A,E]3 [E,G,_D]3 | [A,,A,]6 | %16
 [E,B,E]2 [E,B,] [E,B,]2 [E,B,] | [E,B,]2 [E,B,] [E,B,]3 | [E,G,_D]3 [E,G,D]3 | %19
 [E,G,_D]2 [E,G,] .[E,G,]3 | [A,,A,]2 [A,,A,] [A,,A,]2 [A,,A,] | [A,,A,]2 [A,,A,] [A,,A,]3 | %22
 z2 F z2 F | [A,,A,]2 [A,,A,] .[A,,A,]3 | [B,,A,B,]2 [B,,G,B,] [B,,B,]2 [B,,B,] | [B,,B,]3 B,,3 | %26
 [E,B,E]2 [E,=A,E] [E,B,E]2 [E,CE] | [_D,G,]3 [C,A,]3 | [_D,A,]2 [D,A,] [=D,=B,]2 [D,B,] | %29
 [E,CE]2 [E,A,E] [F,A,D]2 [F,A,D] | [E,A,E]3 [E,G,_D]3 |[M:7/4] [A,,A,]6 z2 z2 z4 |] %32
V:3
 x6 | x6 | x6 | x6 | x6 | x6 | x6 | x6 | x6 | x6 | x6 | x6 | x6 | x6 | x6 | x6 | G3 .G3 | .G3 z3 | %18
 x6 | z2 _D .D3 | E3 .E3 | .E3 z3 | x6 | C2 C .C3 | x6 | x6 | x6 | x6 | x6 | x6 | x6 | %31
[M:7/4] x14 |] %32
V:4
 x6 | x6 | x6 | x6 | x6 | x6 | x6 | x6 | x6 | x6 | x6 | x6 | x6 | x6 | x6 | x6 | x6 | x6 | x6 | %19
 x6 | x6 | x6 | [A,,A,]3 A,,3 | x6 | x6 | x6 | x6 | x6 | x6 | x6 | x6 |[M:7/4] x14 |] %32

